archdroid-icon-theme/Archdroid-Teal/apps/scalable/gnome-disks.svg

<svg fill="#009688" height="48" viewBox="0 0 48 48" width="48" xmlns="http://www.w3.org/2000/svg"><path d="m4 12h-4v28c0 2.21 1.79 4 4 4h28v-4h-28zm4 24h40v-8h-40zm4-6h4v4h-4zm-4-26v8h40v-8zm8 6h-4v-4h4zm-8 14h40v-8h-40zm4-6h4v4h-4z" fill="#009688"/></svg>

<svg fill="#009688" height="48" version="1.1" viewBox="0 0 48 48" width="48" xmlns="http://www.w3.org/2000/svg"><path d="M4 12L0 12 0 40c0 2.21 1.79 4 4 4l28 0 0-4L4 40 4 12ZM8 36l40 0 0-8-40 0 0 8zm4-6l4 0 0 4-4 0 0-4zM8 4L8 12 48 12 48 4 8 4Zm8 6l-4 0 0-4 4 0 0 4zm-8 14l40 0 0-8-40 0 0 8zm4-6l4 0 0 4-4 0 0-4z" fill="#009688"/></svg>
